packages/fxa-payments-server/src/components/SubscriptionTitle/check.svg

<svg xmlns="http://www.w3.org/2000/svg" width="16" height="16" viewBox="0 0 16 16">
<path d="M15.5554 7.90751C15.0801 7.42354 14.9741 6.68825 15.2934 6.08962C15.5214 5.66298 15.5374 5.15568 15.3361 4.71504C15.1354 4.27507 14.7408 3.95375 14.2688 3.84709C13.6082 3.6971 13.1209 3.13581 13.0669 2.45985C13.0276 1.97788 12.7663 1.54124 12.359 1.27992C11.953 1.01794 11.4477 0.961274 10.9924 1.12726C10.3551 1.35858 9.64179 1.1486 9.23115 0.609962C8.93783 0.225986 8.48186 0 7.99789 0C7.51459 0 7.05861 0.225986 6.7653 0.609962C6.35666 1.14926 5.64337 1.35925 5.00608 1.12793C4.55144 0.962607 4.04614 1.01927 3.63949 1.28059C3.23285 1.5419 2.97087 1.97854 2.9322 2.46051C2.87754 3.13647 2.3909 3.69844 1.73028 3.84776C1.25831 3.95442 0.863667 4.27573 0.663012 4.71571C0.462358 5.15568 0.478357 5.66365 0.706343 6.08962C1.02566 6.68758 0.919663 7.42354 0.445026 7.90751C0.105714 8.25215 -0.052943 8.73546 0.0157194 9.21409C0.0843818 9.69273 0.37303 10.112 0.795671 10.3474C1.38763 10.6773 1.69695 11.354 1.55829 12.0173C1.4603 12.4906 1.58762 12.9825 1.90427 13.3478C2.22158 13.7138 2.69089 13.9105 3.17219 13.8798C3.84948 13.8378 4.47411 14.2398 4.71676 14.8724C4.88942 15.3244 5.26339 15.669 5.72803 15.805C6.19134 15.941 6.69264 15.853 7.08195 15.567C7.62791 15.1651 8.37253 15.1651 8.91783 15.567C9.30714 15.8537 9.80844 15.9417 10.2717 15.805C10.7364 15.669 11.1104 15.3237 11.2837 14.8724C11.5257 14.2398 12.151 13.8371 12.8276 13.8798C13.3102 13.9105 13.7789 13.7138 14.0955 13.3478C14.4122 12.9825 14.5401 12.4906 14.4415 12.0173C14.3035 11.354 14.6121 10.6773 15.2048 10.3474C15.6267 10.1114 15.9147 9.69273 15.9841 9.21409C16.0534 8.73546 15.8941 8.25215 15.5554 7.90751ZM7.16661 11.5273L4.16679 8.61813L5.40472 7.38021L7.16661 9.05077L10.9284 5.19501L12.1663 6.43293L7.16661 11.5273Z" fill="#3FE1B0"/>
</svg>

<svg xmlns="http://www.w3.org/2000/svg" width="16" height="16"><path d="M15.555 7.908a1.551 1.551 0 01-.262-1.818 1.548 1.548 0 00-1.024-2.243 1.55 1.55 0 01-1.202-1.387 1.551 1.551 0 00-2.075-1.333A1.55 1.55 0 019.232.61a1.552 1.552 0 00-2.467 0c-.408.54-1.122.75-1.759.518A1.549 1.549 0 002.932 2.46 1.55 1.55 0 011.73 3.848 1.548 1.548 0 00.706 6.09c.32.598.214 1.334-.261 1.818a1.549 1.549 0 00.35 2.44 1.55 1.55 0 01.763 1.67 1.55 1.55 0 001.614 1.862 1.55 1.55 0 011.545.992 1.55 1.55 0 002.365.695 1.548 1.548 0 011.836 0 1.55 1.55 0 002.366-.695 1.549 1.549 0 011.544-.992 1.549 1.549 0 001.614-1.862 1.55 1.55 0 01.763-1.67 1.548 1.548 0 00.35-2.44zm-8.388 3.62l-3-2.91L5.405 7.38l1.762 1.67 3.761-3.855 1.238 1.238-5 5.094z" fill="#3FE1B0"/></svg>
